X:1
T:O! Come Sweet Slumber
M:4/4
L:1/2
K:G
 d| d B| e d| d3/2 c/2| B2| c e| d2| c3/2d/4-c/4| B z| z/2 D/2 G/2 =F/2|\
 E/2 ^F/2 G/2A/4-G/4| F/2 D/2 E/2 F/2| G/2 D/2 G/2 =F/2| E3/2A/4-G/4|\
 F/2- D/2- G-| G F| G z/2 B/2| B G| c B| A/2- F/2 G/2- A/2| G2| A c|\
 c- B| B3/2 A/2| G||

